X:1
T:Title
%%score { ( 1 4 ) | ( 2 3 ) }
L:1/8
M:4/4
K:Bb
V:1 treble nm="Grand Piano"
V:4 treble 
V:2 bass 
V:3 bass 
V:1
 z4 z2[Q:1/4=100] [DF][DF] | [DB]2 [DB]>[DB] [DB]2 [FA][EG] | [DF]3 [B,D] [DF]3 [DF]/[DF]/ | %3
 G2 GG [GB]2 [FA][EG] |[M:3/4] [DF]6 |[M:1/4] [DF]2 |[M:4/4] G2 EE G2 G2 | %7
 [DF][DF] [B,D]2 [DF]2 [DF][DF] | G2 GG A2 GA |[M:3/4] [DB]6 |[M:1/4] [CA]B |[M:4/4] c2 cc d2 Bc | %12
 d2 dd d2 dd | [Ge]2 [Ge]e d2 [FB]2 |[M:3/4] [Fc]6 |[M:1/4] [EF]2 | %16
[M:4/4] [DB]2 [DB][Ec] [B,DB]2 .[B,FB]2 | [B,EG]2 [B,EG][B,FA] [B,GB]2 [B,FB][Fc] | %18
 [Fd]2 [Fc][FB] c2 BA |[M:3/4] [DB]6 |[M:1/4] [DF]2 |[M:4/4] [DF]2 [DF]2 [DF]2 [DF]2 | %22
 [EG]<[EG] [EG]2 [DF]2 [DF]2 | [A,CF]2 [A,F]>[CF] [B,FB]2 [Fd]2 | [Fc]6 F2 | %25
 [Fd]2 [Fd]>[Ec] [DB]2 [DF]2 |[M:9/8] GGG- G [GB]2- [GB][FA]G |[M:4/4] F2 B2 d2 c2 | %28
[M:3/4] [DB]6 |] %29
V:2
 z4 z2 [B,,B,][B,,B,] | [B,,F,]2 [B,,F,]>[B,,F,] [B,,F,]2 [B,,B,]2 | %2
 [B,,B,]3 [B,,F,] [B,,B,]3 [B,,B,]/[B,,B,]/ | [E,B,E]2 [E,B,E][E,B,E] [E,B,]2 [E,B,][E,B,] | %4
[M:3/4] [B,,B,]6 |[M:1/4] [B,,B,]2 |[M:4/4] [E,B,E]2 [E,G,B,][E,G,B,] [E,B,E]2 [E,B,E]2 | %7
 [B,,B,][B,,B,] [B,,F,]2 [B,,B,]2 [B,,B,][B,,B,] | [E,B,E]2 [E,B,E][E,B,E] [F,E]2 [F,E][F,E] | %9
[M:3/4] [B,,F,]6 |[M:1/4] z D |[M:4/4] [F,A,E]2 [F,A,E][F,A,E] [F,A,E]2 [F,B,D][F,A,E] | %12
 [B,F]2 [B,F][B,F] [B,F]2 [B,F][B,F] | [E,B,]2 [E,B,][K:treble][G,B,G] [B,F]2[K:bass] [D,B,]2 | %14
[M:3/4] [F,A,]6 |[M:1/4] [F,A,]2 |[M:4/4] [B,,B,]2 [B,,F,][B,,F,] B,,2 z A | %17
 E,2 E,E, E,2 D,[C,A,] | [B,,B,]2 [C,A,][D,B,] [E,G,E]2 [F,D][F,C] |[M:3/4] [B,,F,]6 | %20
[M:1/4] [B,,B,]2 |[M:4/4] B,8- | B,8 | F,2 F,>E, D,2 [B,,B,]2 | [F,A,]2 F,2 F,E,[D,B,]C, | %25
 [B,,B,]2 [B,,B,]>[B,,B,] [B,,B,]2 [B,,B,]2 | %26
[M:9/8] [E,B,E][E,B,E][E,B,E]- [E,B,E] [E,B,]2- [E,B,][E,B,][E,B,E] | %27
[M:4/4] [F,B,D]2 [F,B,D]2 [F,B,F]2 [F,A,E]2 |[M:3/4] [B,,B,]6 |] %29
V:3
 x8 | x8 | x8 | x8 |[M:3/4] x6 |[M:1/4] x2 |[M:4/4] x8 | x8 | x8 |[M:3/4] x6 |[M:1/4] F,2 | %11
[M:4/4] x8 | x8 | x3[K:treble] x3[K:bass] x2 |[M:3/4] x6 |[M:1/4] x2 |[M:4/4] z4 z2 D,2 | x8 | x8 | %19
[M:3/4] x6 |[M:1/4] x2 |[M:4/4] B,,2 B,,2 B,,2 B,,2 | E,<E, E,2 B,,2 B,,2 | x8 | x8 | x8 | %26
[M:9/8] x9 |[M:4/4] x8 |[M:3/4] x6 |] %29
V:4
 x8 | x8 | x8 | x8 |[M:3/4] x6 |[M:1/4] x2 |[M:4/4] x8 | x8 | x8 |[M:3/4] x6 |[M:1/4] x2 | %11
[M:4/4] x8 | x8 | x8 |[M:3/4] x6 |[M:1/4] x2 |[M:4/4] x8 | x8 | x8 |[M:3/4] x6 |[M:1/4] x2 | %21
[M:4/4] x8 | x8 | x8 | z2 A,2 A,C z A, | x8 |[M:9/8] x9 |[M:4/4] x8 |[M:3/4] x6 |] %29

